src/assets/book.svg

<svg width="16" height="16" viewBox="0 0 16 16" fill="none" xmlns="http://www.w3.org/2000/svg">
<g clip-path="url(#clip0_1_289)">
<path d="M15.2813 1.13333C15.0568 0.945146 14.7935 0.808853 14.5103 0.734177C14.227 0.6595 13.9308 0.648283 13.6427 0.701326L9.52267 1.44999C8.9331 1.55629 8.39663 1.85835 8 2.30733C7.60367 1.85761 7.06716 1.55483 6.47733 1.44799L2.35733 0.699326C2.06918 0.647 1.77305 0.658597 1.48987 0.733297C1.20669 0.807997 0.943372 0.943977 0.718521 1.13163C0.49367 1.31928 0.312775 1.55402 0.188618 1.81927C0.0644604 2.08452 7.11635e-05 2.37379 0 2.66666L0 13.8893L8 15.3447L16 13.8893V2.66666C16 2.37401 15.9357 2.08493 15.8115 1.81994C15.6873 1.55495 15.5063 1.32054 15.2813 1.13333ZM7.33333 13.8667L1.33333 12.7773V2.66666C1.33342 2.56905 1.35493 2.47265 1.39636 2.38427C1.43779 2.29589 1.49811 2.21769 1.57308 2.15518C1.64805 2.09268 1.73583 2.0474 1.83022 2.02254C1.92461 1.99768 2.0233 1.99385 2.11933 2.01133L6.23867 2.75999C6.54588 2.81589 6.82374 2.97783 7.02378 3.2176C7.22383 3.45736 7.33338 3.75973 7.33333 4.07199V13.8667ZM14.6667 12.776L8.66667 13.8667V4.07199C8.66662 3.75973 8.77617 3.45736 8.97622 3.2176C9.17626 2.97783 9.45412 2.81589 9.76133 2.75999L13.8807 2.01133C13.9767 1.99385 14.0754 1.99768 14.1698 2.02254C14.2642 2.0474 14.352 2.09268 14.4269 2.15518C14.5019 2.21769 14.5622 2.29589 14.6036 2.38427C14.6451 2.47265 14.6666 2.56905 14.6667 2.66666V12.776Z" fill="#7F858D"/>
</g>
<defs>
<clipPath id="clip0_1_289">
<rect width="16" height="16" fill="white"/>
</clipPath>
</defs>
</svg>

<svg width="16" height="16" fill="none" xmlns="http://www.w3.org/2000/svg">
  <g clip-path="url(#prefix__clip0_1_289)">
    <path
      d="M15.281 1.133a1.99 1.99 0 00-1.638-.432l-4.12.749A2.662 2.662 0 008 2.307a2.662 2.662 0 00-1.523-.859L2.357.699A2 2 0 000 2.667v11.222l8 1.456 8-1.456V2.667a1.995 1.995 0 00-.719-1.534zM7.333 13.867l-6-1.09V2.667a.667.667 0 01.786-.656l4.12.749a1.333 1.333 0 011.094 1.312v9.795zm7.334-1.091l-6 1.09V4.073A1.333 1.333 0 019.76 2.76l4.12-.749a.666.666 0 01.786.656v10.109z"
      fill="currentColor" />
  </g>
</svg>
